lib/healthicons/icons/solid/specialties/critical_care.svg

<svg fill="none" height="48" viewBox="0 0 48 48" width="48" xmlns="http://www.w3.org/2000/svg"><g fill="#333"><path clip-rule="evenodd" d="m9 6c-1.65685 0-3 1.34315-3 3v30c0 1.6569 1.34315 3 3 3h30c1.6569 0 3-1.3431 3-3v-30c0-1.65685-1.3431-3-3-3zm4 7c-.5523 0-1 .4477-1 1v15.9592c0 .5523.4477 1 1 1h10v2.1428h-4.5385v2h11.077v-2h-4.5385v-2.1428h10c.5523 0 1-.4477 1-1v-15.9592c0-.5523-.4477-1-1-1z" fill-rule="evenodd"/><path d="m13.8462 21.679h5.6578l3.4031-5.985 2.1265 7.3626 2.6022-3.3097h5.5136c.5548 0 1.0045.4449 1.0045.9937 0 .5487-.4497.9936-1.0045.9936h-4.531l-4.429 5.6332-1.8914-6.5486-1.6191 2.8475h-6.8327z"/></g></svg>

<svg width="48" height="48" viewBox="0 0 48 48" fill="none" xmlns="http://www.w3.org/2000/svg">
<path fill-rule="evenodd" clip-rule="evenodd" d="M9 6C7.34315 6 6 7.34315 6 9V39C6 40.6569 7.34315 42 9 42H39C40.6569 42 42 40.6569 42 39V9C42 7.34315 40.6569 6 39 6H9ZM13 13C12.4477 13 12 13.4477 12 14V29.9592C12 30.5115 12.4477 30.9592 13 30.9592H23V33.102H18.4615V35.102H29.5385V33.102H25V30.9592H35C35.5523 30.9592 36 30.5115 36 29.9592V14C36 13.4477 35.5523 13 35 13H13Z" fill="#333333"/>
<path d="M13.8462 21.679H19.504L22.9071 15.694L25.0336 23.0566L27.6358 19.7469H33.1494C33.7042 19.7469 34.1539 20.1918 34.1539 20.7406C34.1539 21.2893 33.7042 21.7342 33.1494 21.7342H28.6184L24.1894 27.3674L22.298 20.8188L20.6789 23.6663H13.8462V21.679Z" fill="#333333"/>
</svg>
